src/assets/icons/cloud-download.svg

<svg width="14" height="14" viewBox="0 0 14 14" fill="none" xmlns="http://www.w3.org/2000/svg">
<g id="cloud-download">
<g clip-path="url(#clip0_156_4650)">
<path id="Vector" fill-rule="evenodd" clip-rule="evenodd" d="M-7.06855e-06 6.67457C-7.06855e-06 3.85625 2.28978 1.56647 5.1081 1.56647C7.2083 1.56647 9.01393 2.83355 9.79842 4.65098C9.99079 4.61515 10.1931 4.59349 10.4054 4.59349C11.3467 4.59349 12.2406 5.05845 12.8878 5.70567C13.535 6.3529 14 7.24674 14 8.18808C14 9.04048 13.9093 9.9231 13.4892 10.6012C13.0323 11.3387 12.2581 11.7297 11.1621 11.7297C10.8487 11.7297 10.5946 11.4756 10.5946 11.1621C10.5946 10.8487 10.8487 10.5946 11.1621 10.5946C11.9581 10.5946 12.319 10.3347 12.5243 10.0034C12.7664 9.61253 12.8649 9.00812 12.8649 8.18808C12.8649 7.61592 12.5731 6.99625 12.0851 6.50834C11.5972 6.02042 10.9776 5.72863 10.4054 5.72863C10.1416 5.72863 9.88485 5.78116 9.61974 5.86732C9.47532 5.91426 9.31812 5.90137 9.18328 5.83153C9.04845 5.76169 8.94722 5.64074 8.90223 5.4957C8.39878 3.87277 6.88845 2.7016 5.1081 2.7016C2.91669 2.7016 1.13513 4.48317 1.13513 6.67457C1.13513 7.76366 1.14121 8.78276 1.39014 9.53454C1.50983 9.896 1.67249 10.15 1.87969 10.3156C2.08033 10.4759 2.37394 10.5946 2.83783 10.5946C3.15129 10.5946 3.4054 10.8487 3.4054 11.1621C3.4054 11.4756 3.15129 11.7297 2.83783 11.7297C2.16659 11.7297 1.60884 11.5522 1.17097 11.2023C0.739656 10.8575 0.476641 10.3869 0.312547 9.89136C-0.000250014 8.94671 -0.000120871 7.74919 -1.11281e-05 6.73137L-7.06855e-06 6.67457ZM4.45702 9.32299C4.67867 9.10134 5.03804 9.10134 5.25969 9.32299L6.43242 10.4957V7.05295C6.43242 6.73949 6.68653 6.48538 6.99999 6.48538C7.31345 6.48538 7.56756 6.73949 7.56756 7.05295V10.4957L8.74027 9.32299C8.96192 9.10134 9.32128 9.10134 9.54293 9.32299C9.76458 9.54464 9.76458 9.90401 9.54293 10.1257L7.40131 12.2673C7.3411 12.3275 7.27074 12.3713 7.19574 12.3988C7.15048 12.4154 7.10251 12.4265 7.05268 12.4311C7.01649 12.4344 6.98004 12.4343 6.94386 12.4307C6.89921 12.4264 6.85607 12.4168 6.81506 12.4027C6.736 12.3755 6.66174 12.3304 6.59865 12.2673L4.45703 10.1257C4.23538 9.90401 4.23538 9.54464 4.45702 9.32299Z" fill="black"/>
</g>
</g>
<defs>
<clipPath id="clip0_156_4650">
<rect width="14" height="14" fill="white"/>
</clipPath>
</defs>
</svg>

<svg xmlns="http://www.w3.org/2000/svg" fill="none" viewBox="0 0 14 14"><g clip-path="url(#a)"><path fill="#000" fill-rule="evenodd" d="M0 6.675a5.11 5.11 0 0 1 5.108-5.109c2.1 0 3.906 1.268 4.69 3.085.193-.036.395-.058.607-.058.942 0 1.836.465 2.483 1.113S14 7.246 14 8.188c0 .852-.09 1.735-.51 2.413-.458.738-1.232 1.129-2.328 1.129a.568.568 0 0 1 0-1.135c.796 0 1.157-.26 1.362-.592.242-.39.34-.995.34-1.815 0-.572-.29-1.192-.779-1.68-.488-.488-1.107-.78-1.68-.78-.263 0-.52.053-.785.14a.57.57 0 0 1-.718-.372 3.972 3.972 0 0 0-7.767 1.179c0 1.089.006 2.108.255 2.86.12.361.282.615.49.78.2.16.494.28.958.28a.568.568 0 1 1 0 1.135c-.671 0-1.23-.178-1.667-.528-.431-.344-.694-.815-.858-1.31C0 8.946 0 7.748 0 6.731zm4.457 2.648a.57.57 0 0 1 .803 0l1.172 1.173V7.053a.568.568 0 0 1 1.136 0v3.443L8.74 9.323a.568.568 0 1 1 .803.803L7.4 12.267a.565.565 0 0 1-.802 0l-2.142-2.141a.57.57 0 0 1 0-.803" clip-rule="evenodd"/></g><defs><clipPath id="a"><path fill="#fff" d="M0 0h14v14H0z"/></clipPath></defs></svg>
